img/q2.svg

<svg width="48" height="40" viewBox="0 0 48 40" fill="none" xmlns="http://www.w3.org/2000/svg">
<path d="M0.597504 35.1825V0.936352C0.597504 0.419205 1.01671 0 1.53386 0H46.1978C46.715 0 47.1342 0.419205 47.1342 0.936352V35.1824C47.1342 35.6995 46.715 36.1187 46.1978 36.1187H1.53386C1.01671 36.1188 0.597504 35.6995 0.597504 35.1825Z" fill="url(#paint0_linear)"/>
<path d="M3.47015 33.2532H44.2616V2.86597H3.47015V33.2532Z" fill="#FFF9E9"/>
<path d="M40.5161 2.86597H44.2615V33.2532H40.5161V2.86597Z" fill="#FFF4D6"/>
<path d="M9.00247 9.44652H33.2116C33.5995 9.44652 33.9138 9.13209 33.9138 8.74426C33.9138 8.35642 33.5995 8.04199 33.2116 8.04199H9.00247C8.61453 8.04199 8.3002 8.35642 8.3002 8.74426C8.3002 9.13209 8.61453 9.44652 9.00247 9.44652Z" fill="#FAE19E"/>
<path d="M38.7292 12.3132H9.00247C8.61453 12.3132 8.3002 12.6277 8.3002 13.0155C8.3002 13.4033 8.61453 13.7178 9.00247 13.7178H38.7293C39.1172 13.7178 39.4316 13.4033 39.4316 13.0155C39.4316 12.6277 39.1171 12.3132 38.7292 12.3132Z" fill="#FAE19E"/>
<path d="M25.8918 16.5847H9.00247C8.61453 16.5847 8.3002 16.8991 8.3002 17.287C8.3002 17.6748 8.61453 17.9892 9.00247 17.9892H25.8918C26.2797 17.9892 26.5941 17.6748 26.5941 17.287C26.5941 16.8991 26.2797 16.5847 25.8918 16.5847Z" fill="#FAE19E"/>
<path d="M20.9483 27.0678C19.7563 27.0711 18.5643 27.0739 17.3723 27.0759C16.9895 27.0765 16.6065 27.077 16.2236 27.0773C15.9306 27.0775 15.6144 27.1293 15.3669 26.9401C15.0898 26.7285 14.9945 26.4296 14.9311 26.1004C14.7937 25.3874 13.7652 25.4782 13.5768 26.1004C13.4933 26.376 13.072 27.1648 12.7039 27.1003C12.5088 27.0662 12.4236 26.7653 12.3515 26.6095C12.2112 26.3062 12.1089 25.9848 12.0214 25.6627C11.6517 24.3018 11.5779 22.8809 11.3466 21.4943C11.2126 20.6903 9.98697 20.9176 9.96721 21.681C9.90429 24.1128 9.50671 26.5113 8.64096 28.7906C8.3197 29.6364 9.67694 30.0022 9.9953 29.1641C10.3291 28.2852 10.5941 27.3853 10.7997 26.4719C10.91 26.8047 11.0416 27.1311 11.2022 27.4487C11.6123 28.2592 12.4487 28.7387 13.3437 28.3782C13.6631 28.2495 13.9545 28.0246 14.2025 27.7509C14.2375 27.7913 14.2728 27.8312 14.3097 27.8684C14.9908 28.556 15.8867 28.4824 16.7777 28.4813C18.1679 28.4795 19.5581 28.4762 20.9484 28.4724C21.8519 28.4698 21.8536 27.0653 20.9483 27.0678Z" fill="#FFC644"/>
<path d="M36.4961 40.0001L34.4829 39.0637L32.4698 40.0001V27.9211H36.4961V40.0001Z" fill="#FFF068"/>
<path d="M34.483 30.2559C33.7726 30.2559 33.3074 29.0467 32.6897 28.7901C32.0493 28.524 30.8691 29.0395 30.3865 28.556C29.9039 28.0725 30.4185 26.8902 30.1529 26.2487C29.8967 25.6299 28.6898 25.1639 28.6898 24.4521C28.6898 23.7405 29.8967 23.2745 30.1529 22.6556C30.4185 22.0141 29.9039 20.8317 30.3865 20.3483C30.8691 19.8649 32.0493 20.3803 32.6896 20.1143C33.3073 19.8576 33.7725 18.6484 34.4829 18.6484C35.1933 18.6484 35.6585 19.8576 36.2762 20.1143C36.9165 20.3803 38.0967 19.8649 38.5793 20.3484C39.0619 20.8318 38.5474 22.0142 38.8129 22.6556C39.0691 23.2745 40.2761 23.7405 40.2761 24.4522C40.2761 25.1639 39.0691 25.6299 38.8129 26.2488C38.5474 26.8903 39.0619 28.0726 38.5793 28.5561C38.0967 29.0395 36.9165 28.524 36.2763 28.7901C35.6586 29.0467 35.1934 30.2559 34.483 30.2559Z" fill="#FECA52"/>
<path d="M38.8129 22.6557C38.5474 22.0142 39.0619 20.8318 38.5793 20.3484C38.0967 19.8649 36.9165 20.3803 36.2761 20.1143C35.6584 19.8576 35.1933 18.6484 34.4828 18.6484C33.7724 18.6484 33.3073 19.8576 32.6895 20.1143C32.664 20.1249 32.6373 20.1339 32.6101 20.1421C33.2644 20.3404 34.3705 19.8841 34.8338 20.3484C35.3164 20.8318 34.8019 22.0142 35.0674 22.6557C35.3236 23.2745 36.5306 23.7405 36.5306 24.4522C36.5306 25.1639 35.3236 25.63 35.0674 26.2488C34.8019 26.8903 35.3164 28.0726 34.8338 28.5561C34.3705 29.0202 33.2644 28.564 32.6101 28.7624C32.6373 28.7706 32.664 28.7796 32.6895 28.7902C33.3073 29.0468 33.7724 30.256 34.4828 30.256C35.1933 30.256 35.6583 29.0468 36.2761 28.7902C36.9165 28.5241 38.0967 29.0396 38.5792 28.5561C39.0618 28.0726 38.5473 26.8903 38.8128 26.2488C39.069 25.63 40.276 25.1639 40.276 24.4522C40.2761 23.7405 39.0691 23.2745 38.8129 22.6557Z" fill="url(#paint1_linear)"/>
<path d="M34.4829 26.493C35.61 26.493 36.5236 25.5793 36.5236 24.4523C36.5236 23.3253 35.61 22.4116 34.4829 22.4116C33.3559 22.4116 32.4423 23.3253 32.4423 24.4523C32.4423 25.5793 33.3559 26.493 34.4829 26.493Z" fill="#FFF068"/>
<defs>
<linearGradient id="paint0_linear" x1="0.505157" y1="-0.156348" x2="27.1379" y2="40.7351" gradientUnits="userSpaceOnUse">
<stop stop-color="#FECA52"/>
<stop offset="0.515625" stop-color="#FFCE5F"/>
<stop offset="1" stop-color="#FF644E"/>
</linearGradient>
<linearGradient id="paint1_linear" x1="32.5949" y1="18.5982" x2="41.6907" y2="25.7565" gradientUnits="userSpaceOnUse">
<stop stop-color="#FECA52"/>
<stop offset="0.515625" stop-color="#FFCE5F"/>
<stop offset="1" stop-color="#FF644E"/>
</linearGradient>
</defs>
</svg>

<svg width="48" height="40" viewBox="0 0 48 40" fill="none" xmlns="http://www.w3.org/2000/svg"><path d="M.598 35.182V.936C.598.42 1.017 0 1.534 0h44.664c.517 0 .936.42.936.936v34.246c0 .517-.419.937-.936.937H1.534a.936.936 0 0 1-.936-.937z" fill="url(#a)"/><path d="M3.47 33.253h40.792V2.866H3.47v30.387z" fill="#FFF9E9"/><path d="M40.516 2.866h3.745v30.387h-3.745V2.866z" fill="#FFF4D6"/><path d="M9.002 9.447h24.21a.702.702 0 1 0 0-1.405H9.002a.702.702 0 1 0 0 1.405zM38.73 12.313H9.001a.702.702 0 0 0 0 1.405H38.73a.702.702 0 1 0 0-1.405zM25.892 16.585H9.002a.702.702 0 1 0 0 1.404h16.89a.702.702 0 1 0 0-1.404z" fill="#FAE19E"/><path d="M20.948 27.068a3278.942 3278.942 0 0 1-4.724.01c-.293 0-.61.051-.857-.138-.277-.212-.373-.51-.436-.84-.137-.713-1.166-.622-1.354 0-.084.276-.505 1.065-.873 1-.195-.034-.28-.335-.353-.49a5.99 5.99 0 0 1-.33-.947c-.37-1.361-.443-2.782-.674-4.169-.134-.804-1.36-.576-1.38.187-.063 2.432-.46 4.83-1.326 7.11-.321.845 1.036 1.211 1.354.373.334-.879.6-1.779.805-2.692.11.333.242.66.402.977.41.81 1.247 1.29 2.142.93.32-.13.61-.354.859-.628.035.04.07.08.107.117.68.688 1.577.614 2.468.613l4.17-.009c.904-.002.906-1.407 0-1.404z" fill="#FFC644"/><path d="M36.496 40l-2.013-.936L32.47 40V27.921h4.026v12.08z" fill="#FFF068"/><path d="M34.483 30.256c-.71 0-1.176-1.21-1.793-1.466-.64-.266-1.82.25-2.303-.234-.483-.483.032-1.666-.234-2.307-.256-.62-1.463-1.085-1.463-1.797s1.207-1.178 1.463-1.796c.266-.642-.25-1.824.234-2.308.482-.483 1.662.032 2.303-.234.617-.256 1.083-1.466 1.793-1.466s1.175 1.21 1.793 1.466c.64.266 1.82-.25 2.303.234.483.484-.032 1.666.234 2.308.256.619 1.463 1.085 1.463 1.796 0 .712-1.207 1.178-1.463 1.797-.266.641.249 1.824-.234 2.307-.482.483-1.663-.032-2.303.234-.617.257-1.083 1.466-1.793 1.466z" fill="#FECA52"/><path d="M38.813 22.656c-.266-.642.249-1.824-.234-2.308-.482-.483-1.663.032-2.303-.234-.618-.256-1.083-1.466-1.793-1.466s-1.176 1.21-1.793 1.466a.835.835 0 0 1-.08.028c.654.198 1.76-.258 2.224.206.482.484-.032 1.666.233 2.308.257.619 1.464 1.085 1.464 1.796 0 .712-1.207 1.178-1.464 1.797-.265.641.25 1.824-.233 2.307-.464.464-1.57.008-2.224.206a.835.835 0 0 1 .08.028c.617.257 1.082 1.466 1.793 1.466.71 0 1.175-1.21 1.793-1.466.64-.266 1.82.25 2.303-.234.483-.483-.032-1.666.234-2.307.256-.619 1.463-1.085 1.463-1.797s-1.207-1.178-1.463-1.796z" fill="url(#b)"/><path d="M34.483 26.493a2.04 2.04 0 1 0 0-4.081 2.04 2.04 0 0 0 0 4.081z" fill="#FFF068"/><defs><linearGradient id="a" x1=".505" y1="-.156" x2="27.138" y2="40.735" gradientUnits="userSpaceOnUse"><stop stop-color="#FECA52"/><stop offset=".516" stop-color="#FFCE5F"/><stop offset="1" stop-color="#FF644E"/></linearGradient><linearGradient id="b" x1="32.595" y1="18.598" x2="41.691" y2="25.756" gradientUnits="userSpaceOnUse"><stop stop-color="#FECA52"/><stop offset=".516" stop-color="#FFCE5F"/><stop offset="1" stop-color="#FF644E"/></linearGradient></defs></svg>
